X:1
T: Mr. Edward Simpson of Edinburgh's Fancy
C:William Marshall
R:Strathspey
Q: 128
K:F
M:4/4
L:1/16
|:F3G F2d2 c2B2 A2G2|F3G F2a2 g2f2 e2c2|b3g a3f gabg a2f2|efga gfed c2d2 cBAG|
F3G F2d2 c2B2 A2G2|F3G F2a2 g2f2 e2c2|b3g a3f gabg a2f2|c3f efge f4 f4|
ABcd c2c2 c2a2 a4|efga g3a gfed c4|ABcd c2c2 c2b2 b4|bagf efga a4 g2z2|
F3G F2d2 c2B2 A2G2|F3G F2a2 g2f2 e2c2|b3g a3f gabg a2f2 c3f|efge f4 f4:|
